X: 546
T: Derd-i Hicrinle
C: Bestenigâr Ziyâ Bey
O: Turkey
F: http://compmusic.upf.edu/node/140
N: irak--sarki--musemmen--derd-i_hicrinle--bestenigar_ziya_bey
N: makam= irak
N: form= sarki
N: usul= musemmen = 8/8
M: 8/8
L: 1/16
K: C _2/4B ^3/4f  
Q: 1/4=108
%%MIDI tuningsystem comma53
G4 A2A4d4e2  | c2B2 A2A3G^F6  | ^F4 G2A4B2 A2d2  | \
w:  Derd_ i  hic rin  |  le  *  bü tün  *  â  |  vâ re ler  â  | 
cdcB BAA8z2  | 
w:  vâ *  *  *  re *  ler    | 
d4 c2d4e4d2  | c4 B2c2 BAA4z2  | A4 G2A2 B2c2 B2A2  | \
w:  Mâ te me  gir  |  di  gi yin *  *  di   |  ka re ler  *  ah   | 
A3G G^FF4d4z2  | 
w:  ka *  re *  ler   SAZ  | 
d4 c2d4e4d2  | c4 B2c2 BAA4z2  | A4 G2A2 B2c2 B2A2  | \
w:  Mâ te me  gir  |  di  gi yin *  *  di   |  ka re ler  *  ah   | 
A3G G^FF4^f4z2  | 
w:  ka *  re *  ler   SAZ  | 
^f4 d2f4g4f2  | g2=f2 e2d4c2 B2A2  | \
w:  Hem  ta bîb  ağ  |  lar  *  bu na  yok   | 
A4 G2A4e2 d2c2  | c3B BAA4f4z2  | 
w:  çâ re ler   |  çâ *  re *  ler   SAZ  | 
^f4 d2f4g4f2  | g2=f2 e2d4c2 B2A2  | \
w:  Hem  ta bîb  ağ  |  lar  *  bu na  yok   | 
A4 G2A4e2 d2c2  | c3B BAA8z2  | 
w:  çâ re ler   |  çâ *  re *  ler    | 
d4 c2d4e4d2  | c4 B2c2 BAA4z2  | A4 G2A2 B2c2 B2A2  | \
w:  Mâ te me  gir  |  di  gi yin *  *  di   |  ka re ler  *  ah   | 
A3G G^FF4d4z2  | 
w:  ka *  re *  ler   SAZ  | 
d4 c2d4e4d2  | c4 B2c2 BAA4z2  | A4 G2A2 B2c2 B2A2  | \
w:  Mâ te me  gir  |  di  gi yin *  *  di   |  ka re ler  *  ah   | 
A3G G^FF4z4z2  | 
w:  ka KARAR re *  ler    | 
|


